lib/radiotmp/nrk-rotate.svg

<svg width="24" height="24" viewBox="0 0 24 24" fill="none" xmlns="http://www.w3.org/2000/svg">
<path d="M5.77 8.16L9.38 8.8H9.39L7.66 10.53L2.85 9.68L2 4.87L3.73 3.15L4.36 6.76L5.48 5.64C8.99 2.12 14.69 2.12 18.2 5.64C18.24 5.68 18.275 5.7225 18.31 5.765C18.345 5.8075 18.38 5.85 18.42 5.89C18.57 6.05 18.72 6.22 18.86 6.39C18.95 6.49997 19.04 6.61994 19.1299 6.73992C19.2899 6.95992 19.43 7.18 19.57 7.41C19.5812 7.42869 19.5938 7.44738 19.6068 7.4666C19.6285 7.49878 19.6512 7.53243 19.67 7.57C19.85 7.88 20 8.21 20.14 8.54C20.145 8.555 20.1525 8.5725 20.16 8.59C20.1675 8.6075 20.175 8.625 20.18 8.64C20.53 9.52 20.74 10.43 20.81 11.36L18.77 11.07C18.67 10.35 18.46 9.64 18.14 8.97L18.08 8.85C17.93 8.56 17.77 8.28 17.58 8.01C17.5613 7.9913 17.5465 7.9687 17.5307 7.94465C17.5212 7.93012 17.5113 7.91506 17.5 7.9C17.29 7.6 17.05 7.31 16.78 7.04C14.05 4.31 9.62 4.31 6.89 7.04L5.77 8.16Z" fill="black"/>
<path d="M16.02 13.47L20.83 14.32L20.84 14.33L21.69 19.14L19.96 20.87L19.32 17.26L18.2 18.38C14.68 21.89 8.97999 21.89 5.46999 18.38L5.22999 18.11C3.78999 16.55 2.99999 14.62 2.85999 12.65L4.89999 12.94C5.09999 14.41 5.75998 15.83 6.88999 16.96C7.11999 17.19 7.36999 17.4 7.61999 17.59C10.36 19.66 14.28 19.46 16.78 16.96L17.9 15.84L14.29 15.2L16.02 13.47Z" fill="black"/>
</svg>

<svg xmlns="http://www.w3.org/2000/svg" viewBox="0 0 24 24"><path fill="#000" d="m5.77 8.16 3.61.64h.01l-1.73 1.73-4.81-.85L2 4.87l1.73-1.72.63 3.61 1.12-1.12a8.98 8.98 0 0 1 12.72 0c.04.04.075.083.11.125.035.043.07.085.11.125.15.16.3.33.44.5.09.11.18.23.27.35.16.22.3.44.44.67.011.019.024.037.037.057.021.032.044.065.063.103a8.669 8.669 0 0 1 .49 1.02l.02.05c.35.88.56 1.79.63 2.72l-2.04-.29a7.16 7.16 0 0 0-.63-2.1l-.06-.12a7.15 7.15 0 0 0-.5-.84c-.019-.019-.033-.041-.05-.065a6.437 6.437 0 0 0-.75-.905 6.995 6.995 0 0 0-9.89 0L5.77 8.16ZM16.02 13.47l4.81.85.01.01.85 4.81-1.73 1.73-.64-3.61-1.12 1.12c-3.52 3.51-9.22 3.51-12.73 0l-.24-.27a8.962 8.962 0 0 1-2.37-5.46l2.04.29c.2 1.47.86 2.89 1.99 4.02.23.23.48.44.73.63 2.74 2.07 6.66 1.87 9.16-.63l1.12-1.12-3.61-.64 1.73-1.73Z"/></svg>
